!!!!SEGMENT: pl-cz--iii-564--001-007_raszek-waclaw--missa-pastoralis-d-benedictus.krn
!!!cenid: 18xx:991
!!!COM: Raszek, Wacław
!!!COM-rismID: pe30020314
!!!CDT: <1848->1848
!!!CNT:
!!!OPR: Missa Pastoralis D
!!!OTL: Benedictus
!!!OMV: 007
!!!PDT:
!!!AGN: Sacred; Mass
!!!SMS-siglum: PL-CZ
!!!SMS-shelfmark: III-564
!!!SMS-shelfwork: 001-007 M
!!!SMS-variant:
!!!SMS-altvar:
!!!NIFC-rismSourceID: 300001047
!!!NIFC-rismChildID: 300001047
!!!NIFC-islandoraID: pl-cz:39183
!!!URL-pdf-islandora: https://repozytorium.nifc.pl/islandora/object/pl-cz%3A39183/datastream/PDF/view
!!!URL-scan:
!!!ONB-nifc: UWAGA: części Mszy: Kyrie, Gloria, Credo, Et incarnatus, Et resurrexit, Sanctus, Pleni sunt, Benedictus, Agnus Dei, Dona nobis
!!!AIN: 1 alto 1 bass 2 clars 2 cor 2 flt 1 organ 1 soprn 1 tenor 1 tromp 2 violn
!!!key: G
**kern	**fba	**dynam	**kern	**dynam	**kern	**dynam	**kern	**kern	**kern	**text	**kern	**text	**kern	**kern	**kern	**kern	**kern	**kern	**kern	**dynam
*	*	*	*group4	*	*group4	*	*group3	*group3	*group3	*	*group3	*	*group2	*group2	*group2	*group1	*group1	*group1	*group1	*
*part14	*part14	*part14	*part13	*part13	*part12	*part12	*part11	*part10	*part9	*part9	*part8	*part8	*part7	*part6	*part5	*part4	*part3	*part2	*part1	*part1
*staff14	*	*	*staff13	*	*staff12	*	*staff11	*staff10	*staff9	*staff9	*staff8	*staff8	*staff7	*staff6	*staff5	*staff4	*staff3	*staff2	*staff1	*
*I"Organo.	*	*	*I"Violino 2.do	*	*I"Violino Primo.	*	*I"Baſso.	*I"Tenor	*I"Alto.	*	*I"Canto.	*	*I"Clarino.	*I"Cornu 2.do	*I"Cornu 1.mo	*I"Clarinetto vel Oboe 2do	*I"Clarinetto vel Oboe 1mo	*I"Flauto 2.da	*I"Flauto 1.mo	*
*I'org	*	*	*I'vl 2	*	*I'vl 1	*	*I'B	*I'T	*I'A	*	*I'S	*	*I'clno	*I'cor 2	*I'cor 1	*I'cl vel ob 2	*I'cl vel ob 1	*I'fl 2	*I'fl 1	*
*Iorgan	*	*	*Ivioln	*	*Ivioln	*	*Ibass	*Itenor	*Ialto	*	*Isoprn	*	*Itromp	*Icor	*Icor	*Iclars	*Iclars	*Iflt	*Iflt	*
*ICklav	*	*	*ICstr	*	*ICstr	*	*ICvox	*ICvox	*ICvox	*	*ICvox	*	*ICbras	*ICbras	*ICbras	*ICww	*ICww	*ICww	*ICww	*
*IGcont	*	*	*	*	*	*	*IGcoro	*IGcoro	*IGcoro	*	*IGcoro	*	*	*	*	*	*	*	*	*
*clefF4	*	*	*clefG2	*	*clefG2	*	*	*	*clefC3	*	*clefC1	*	*	*	*	*	*	*clefG2	*clefG2	*
*k[f#]	*	*	*k[f#]	*	*k[f#]	*	*	*	*k[f#]	*	*k[f#]	*	*	*	*	*	*	*k[f#]	*k[f#]	*
*G:	*	*	*G:	*	*G:	*	*	*	*G:	*	*G:	*	*	*	*	*	*	*G:	*G:	*
*M3/4	*	*	*M3/4	*	*M3/4	*	*	*	*M3/4	*	*M3/4	*	*	*	*	*	*	*M3/4	*M3/4	*
*all\right	*	*	*all\right	*	*all\right	*	*	*	*all\right	*	*all\right	*	*	*	*	*	*	*all\right	*all\right	*
=1	=1	=1	=1	=1	=1	=1	=1	=1	=1	=1	=1	=1	=1	=1	=1	=1	=1	=1	=1	=1
*	*	*	*2\right	*	*2\right	*	*	*	*	*	*	*	*	*	*	*	*	*2\right	*2\right	*
!	!	!	!	!	!	!	!	!	!LO:TX:a:t=10	!	!	!	!	!	!	!	!	!	!	!
!LO:TX:a:i:t=Solo.	!	!	!	!	!LO:TX:a:i:t=Solo.	!	!	!	!LO:TX:a:i:t=Solo	!	!	!	!	!	!	!	!	!	!LO:TX:a:i:t=Solo	!
!LO:TX:a:B:t=and.	!	!	!LO:TX:a:B:t=And.	!	!LO:TX:a:B:t=Ad&colon;	!	!LO:TX:a:i:t=Benedictus Tacet.	!LO:TX:t=P:problem=zgodnie z RISM "T missing"	!LO:TX:a:B:t=Ad&colon;	!	!LO:TX:a:B:t=And.	!	!LO:TX:t=P:problem=zgodnie z RISM "clno missing"	!LO:TX:a:i:t=Benedictus Tacet	!LO:TX:a:i:t=Benedictuſ Tacet	!LO:TX:a:i:t=Benedictus Tacet	!LO:TX:a:i:t=Benedictuſ Tacet	!LO:TX:a:B:t=And.	!LO:TX:a:B:t=And.	!
4GG/	.	.	2b\	.	2dd\	.	2.ryy	2.ryy	0.r	.	0.r	.	2.ryy	2.ryy	2.ryy	2.ryy	2.ryy	2bb\	2ddd\	.
4BB/	.	.	.	.	.	.	.	.	.	.	.	.	.	.	.	.	.	.	.	.
.	.	.	8qb/	.	8qdd/	.	.	.	.	.	.	.	.	.	.	.	.	.	.	.
4D\	7	.	8a/L	.	8cc\L	.	.	.	.	.	.	.	.	.	.	.	.	16bb\LL	16ddd\LL	.
.	.	.	.	.	.	.	.	.	.	.	.	.	.	.	.	.	.	16aa\	16ccc\	.
.	.	.	16g/L	.	16b\L	.	.	.	.	.	.	.	.	.	.	.	.	16gg\	16bb\	.
.	.	.	16a/JJ	.	16cc\JJ	.	.	.	.	.	.	.	.	.	.	.	.	16aa\JJ	16ccc\JJ	.
=2	=2	=2	=2	=2	=2	=2	=2	=2	=2	=2	=2	=2	=2	=2	=2	=2	=2	=2	=2	=2
4G\	.	.	4a/	.	4ccT\	.	2.ryy	2.ryy	.	.	.	.	2.ryy	2.ryy	2.ryy	2.ryy	2.ryy	4aa\	4ccc\	.
4GG/	.	.	8g/L	.	8b\L	.	.	.	.	.	.	.	.	.	.	.	.	4gg\	4bb\	.
.	.	.	8b/	.	8gg\	.	.	.	.	.	.	.	.	.	.	.	.	.	.	.
4G\	.	.	8g/	.	8dd\	.	.	.	.	.	.	.	.	.	.	.	.	4bb\	4ddd\	.
.	.	.	8g/J	.	8dd\J	.	.	.	.	.	.	.	.	.	.	.	.	.	.	.
=3	=3	=3	=3	=3	=3	=3	=3	=3	=3	=3	=3	=3	=3	=3	=3	=3	=3	=3	=3	=3
.	.	.	.	.	8qdd#X/	.	.	.	.	.	.	.	.	.	.	.	.	.	8qddd#X/	.
4C/	.	.	4g/	.	4ee\	.	2.ryy	2.ryy	.	.	.	.	2.ryy	2.ryy	2.ryy	2.ryy	2.ryy	4ccc\	4eee\	.
4D\	.	.	8g/L	.	8ddn\L	.	.	.	.	.	.	.	.	.	.	.	.	8bb\L	8dddn\L	.
.	.	.	8e/	.	8cc\	.	.	.	.	.	.	.	.	.	.	.	.	8aa\	8ccc\	.
4D\	.	.	8d/	.	8b\	.	.	.	.	.	.	.	.	.	.	.	.	8gg\	8bb\	.
.	.	.	8c/J	.	8a\J	.	.	.	.	.	.	.	.	.	.	.	.	8ff#\J	8aa\J	.
=4	=4	=4	=4	=4	=4	=4	=4	=4	=4	=4	=4	=4	=4	=4	=4	=4	=4	=4	=4	=4
4E\	3	.	4B/	.	16g/LL	.	2.ryy	2.ryy	.	.	.	.	2.ryy	2.ryy	2.ryy	2.ryy	2.ryy	8gg\L	16gg\LL	.
.	.	.	.	.	16a/	.	.	.	.	.	.	.	.	.	.	.	.	.	16aa\	.
.	.	.	.	.	16b/	.	.	.	.	.	.	.	.	.	.	.	.	8gg\J	16bb\	.
.	.	.	.	.	16a/JJ	.	.	.	.	.	.	.	.	.	.	.	.	.	16aa\JJ	.
!	!	!	!	!	!LO:TX:t=P:problem=mixed beam	!	!	!	!	!	!	!	!	!	!	!	!	!	!	!
4BB/	6	.	4d/	.	8g/L	.	.	.	.	.	.	.	.	.	.	.	.	4gg\	4gg\	.
.	.	.	.	.	8gg\J	.	.	.	.	.	.	.	.	.	.	.	.	.	.	.
4r	.	.	4r	.	16bb\LL	.	.	.	.	.	.	.	.	.	.	.	.	4r	4r	.
.	.	.	.	.	16gg\	.	.	.	.	.	.	.	.	.	.	.	.	.	.	.
.	.	.	.	.	16ff#\	.	.	.	.	.	.	.	.	.	.	.	.	.	.	.
.	.	.	.	.	16gg\JJ	.	.	.	.	.	.	.	.	.	.	.	.	.	.	.
=5	=5	=5	=5	=5	=5	=5	=5	=5	=5	=5	=5	=5	=5	=5	=5	=5	=5	=5	=5	=5
4C/	.	.	8g|/L	.	8ee\L	.	2.ryy	2.ryy	0.r	.	0.r	.	2.ryy	2.ryy	2.ryy	2.ryy	2.ryy	8gg\L	8eee\L	.
.	.	.	(8e/	.	8cc\	.	.	.	.	.	.	.	.	.	.	.	.	8ee\	8ccc\	.
4D/	.	.	8d/	.	8b\	.	.	.	.	.	.	.	.	.	.	.	.	8dd\	8bb\	.
.	.	.	8c/	.	8a\	.	.	.	.	.	.	.	.	.	.	.	.	8cc\	8aa\	.
4DD/	.	.	8B/	.	8g\	.	.	.	.	.	.	.	.	.	.	.	.	8b\	8gg\	.
.	.	.	8A/J)	.	8f#\J	.	.	.	.	.	.	.	.	.	.	.	.	8a\J	8ff#\J	.
=6	=6	=6	=6	=6	=6	=6	=6	=6	=6	=6	=6	=6	=6	=6	=6	=6	=6	=6	=6	=6
.	.	.	.	.	8qf#/	.	.	.	.	.	.	.	.	.	.	.	.	8qa/	8qff#/	.
4GG/	.	.	4B'/	.	2g/	.	2.ryy	2.ryy	.	.	.	.	2.ryy	2.ryy	2.ryy	2.ryy	2.ryy	2b\	2gg\	.
4G\	.	.	4B'/	.	.	.	.	.	.	.	.	.	.	.	.	.	.	.	.	.
4r	.	.	4r	.	16dd\LL	.	.	.	.	.	.	.	.	.	.	.	.	4r	16ddd\LL	.
.	.	.	.	.	16cc#X\	.	.	.	.	.	.	.	.	.	.	.	.	.	16ccc#X\	.
.	.	.	.	.	16ee\	.	.	.	.	.	.	.	.	.	.	.	.	.	16eee\	.
.	.	.	.	.	16dd\JJ	.	.	.	.	.	.	.	.	.	.	.	.	.	16ddd\JJ	.
*	*	*	*	*	*	*	*	*	*	*	*	*	*	*	*	*	*	*	*custos:gg	*
!	!	!	!	!	!	!	!	!	!	!	!	!	!	!	!	!	!	!	!LO:LB:g=original	!
=7	=7	=7	=7	=7	=7	=7	=7	=7	=7	=7	=7	=7	=7	=7	=7	=7	=7	=7	=7	=7
4GG/	.	.	(8B/L	.	2g/	.	2.ryy	2.ryy	.	.	.	.	2.ryy	2.ryy	2.ryy	2.ryy	2.ryy	2b\	2gg\	.
.	.	.	8d/	.	.	.	.	.	.	.	.	.	.	.	.	.	.	.	.	.
4G\	.	.	8B/	.	.	.	.	.	.	.	.	.	.	.	.	.	.	.	.	.
.	.	.	8d/	.	.	.	.	.	.	.	.	.	.	.	.	.	.	.	.	.
4D\	7	.	8c/	.	8a/L	.	.	.	.	.	.	.	.	.	.	.	.	8cc\L	8aa\L	.
.	.	.	8d/J)	.	8f#/J	.	.	.	.	.	.	.	.	.	.	.	.	8a\J	8ff#\J	.
=8	=8	=8	=8	=8	=8	=8	=8	=8	=8	=8	=8	=8	=8	=8	=8	=8	=8	=8	=8	=8
.	.	.	.	.	8qa/	.	.	.	.	.	.	.	.	.	.	.	.	.	8qaa/	.
4GG/	.	.	8B/L	.	8g/L	.	2.ryy	2.ryy	.	.	.	.	2.ryy	2.ryy	2.ryy	2.ryy	2.ryy	4b\	8gg\L	.
.	.	.	8d/J	.	16f#/L	.	.	.	.	.	.	.	.	.	.	.	.	.	16ff#\L	.
.	.	.	.	.	16g/JJ	.	.	.	.	.	.	.	.	.	.	.	.	.	16gg\JJ	.
!	!	!	!LO:LB:g=original	!	!LO:LB:g=original	!	!	!	!	!	!	!	!	!	!	!	!	!	!	!
4G\	.	.	8B/L	.	4d/	.	.	.	.	.	.	.	.	.	.	.	.	4b\	4dd\	.
.	.	.	8d/	.	.	.	.	.	.	.	.	.	.	.	.	.	.	.	.	.
4r	.	.	8B/	.	16dd\LL	.	.	.	.	.	.	.	.	.	.	.	.	4r	16ddd\LL	.
.	.	.	.	.	16cc#X\	.	.	.	.	.	.	.	.	.	.	.	.	.	16ccc#X\	.
.	.	.	8d/J	.	16ee\	.	.	.	.	.	.	.	.	.	.	.	.	.	16eee\	.
.	.	.	.	.	16dd\JJ	.	.	.	.	.	.	.	.	.	.	.	.	.	16ddd\JJ	.
*	*	*	*	*	*	*	*	*	*	*	*	*	*	*	*	*	*	*custos:b	*	*
!	!	!	!	!	!	!	!	!	!	!	!	!	!	!	!	!	!	!LO:LB:g=original	!	!
=9	=9	=9	=9	=9	=9	=9	=9	=9	=9	=9	=9	=9	=9	=9	=9	=9	=9	=9	=9	=9
4GG/	.	.	8B/L	.	2g/	.	2.ryy	2.ryy	1.r	.	1.r	.	2.ryy	2.ryy	2.ryy	2.ryy	2.ryy	2b\	2gg\	.
.	.	.	8d/	.	.	.	.	.	.	.	.	.	.	.	.	.	.	.	.	.
4G\	.	.	8B/	.	.	.	.	.	.	.	.	.	.	.	.	.	.	.	.	.
.	.	.	8d/	.	.	.	.	.	.	.	.	.	.	.	.	.	.	.	.	.
4D\	7	.	8c/	.	8a/L	.	.	.	.	.	.	.	.	.	.	.	.	8cc\L	8aa\L	.
.	.	.	8e/J	.	8f#/J	.	.	.	.	.	.	.	.	.	.	.	.	8a\J	8ff#\J	.
=10	=10	=10	=10	=10	=10	=10	=10	=10	=10	=10	=10	=10	=10	=10	=10	=10	=10	=10	=10	=10
.	.	.	.	.	8qf#/	.	.	.	.	.	.	.	.	.	.	.	.	.	8qff#/	.
4GG/	.	.	4B/	.	4g/	.	2.ryy	2.ryy	.	.	.	.	2.ryy	2.ryy	2.ryy	2.ryy	2.ryy	4b\	4gg\	.
!LO:LB:g=original	!	!	!	!	!	!	!	!	!	!	!	!	!	!	!	!	!	!	!	!
8r	.	.	4B/	.	4G/	.	.	.	.	.	.	.	.	.	.	.	.	4r	4r	.
8G\L	.	.	.	.	.	.	.	.	.	.	.	.	.	.	.	.	.	.	.	.
8D\	.	.	4r	.	4r	.	.	.	.	.	.	.	.	.	.	.	.	4r	4r	.
8BB\J	.	.	.	.	.	.	.	.	.	.	.	.	.	.	.	.	.	.	.	.
=11	=11	=11	=11	=11	=11	=11	=11	=11	=11	=11	=11	=11	=11	=11	=11	=11	=11	=11	=11	=11
*	*	*	*	*	*	*	*	*	*2\right	*	*2\right	*	*	*	*	*	*	*	*	*
!	!	!LO:DY:a	!	!LO:DY:a	!	!LO:DY:a	!	!	!	!	!	!	!	!	!	!	!	!	!	!
4GG/	.	pp	2b\	p	2dd\	pp	2.ryy	2.ryy	2b\	Be-	2dd\	Be-	2.ryy	2.ryy	2.ryy	2.ryy	2.ryy	0.r	0.r	.
4BB/	.	.	.	.	.	.	.	.	.	.	.	.	.	.	.	.	.	.	.	.
.	.	.	8qb/	.	8qdd/	.	.	.	.	.	8qdd/	.	.	.	.	.	.	.	.	.
4D\	7	.	8a/L	.	8cc\L	.	.	.	16b\LL	-ne-	8cc\L	-ne-	.	.	.	.	.	.	.	.
.	.	.	.	.	.	.	.	.	16a\	.	.	.	.	.	.	.	.	.	.	.
.	.	.	16g/L	.	16b\L	.	.	.	16g\	.	16b\L	.	.	.	.	.	.	.	.	.
.	.	.	16a/JJ	.	16cc\JJ	.	.	.	16a\JJ	.	16cc\JJ	.	.	.	.	.	.	.	.	.
=12	=12	=12	=12	=12	=12	=12	=12	=12	=12	=12	=12	=12	=12	=12	=12	=12	=12	=12	=12	=12
4G\	4 2	.	4a/	.	4cc\	.	2.ryy	2.ryy	4a\	-dic-	4cc\	-dic-	2.ryy	2.ryy	2.ryy	2.ryy	2.ryy	.	.	.
4GG/	3 1	.	8g/L	.	8b\L	.	.	.	4g\	-tus	4b\	-tuſ	.	.	.	.	.	.	.	.
.	.	.	8g/	.	8gg\	.	.	.	.	.	.	.	.	.	.	.	.	.	.	.
4BB/	.	.	8g/	.	8dd\	.	.	.	4b\	qui	4dd\	qui	.	.	.	.	.	.	.	.
.	.	.	8g/J	.	8dd\J	.	.	.	.	.	.	.	.	.	.	.	.	.	.	.
=13	=13	=13	=13	=13	=13	=13	=13	=13	=13	=13	=13	=13	=13	=13	=13	=13	=13	=13	=13	=13
.	.	.	.	.	8qdd#X/	.	.	.	.	.	8qdd#X/	.	.	.	.	.	.	.	.	.
4C\	.	.	4g/	.	4ee\	.	2.ryy	2.ryy	4cc\	ve-	4ee\	ve-	2.ryy	2.ryy	2.ryy	2.ryy	2.ryy	.	.	.
4D\	.	.	(8f#/L	.	8ddn\L	.	.	.	8b\L	-ni	8ddn\L	-nit	.	.	.	.	.	.	.	.
.	.	.	8e/	.	8cc\	.	.	.	8a\J	.	8cc\J	.	.	.	.	.	.	.	.	.
4D\	.	.	8d/	.	8b\	.	.	.	8g\L	in	8b\L	qui	.	.	.	.	.	.	.	.
.	.	.	8c/J)	.	8a\J	.	.	.	8f#\J	.	8a\J	.	.	.	.	.	.	.	.	.
=14	=14	=14	=14	=14	=14	=14	=14	=14	=14	=14	=14	=14	=14	=14	=14	=14	=14	=14	=14	=14
4E\	3	.	4B/	.	16g/LL	.	2.ryy	2.ryy	8g\	no-	16g\LL	ve-	2.ryy	2.ryy	2.ryy	2.ryy	2.ryy	.	.	.
.	.	.	.	.	16a/	.	.	.	.	.	16a\	.	.	.	.	.	.	.	.	.
.	.	.	.	.	16b/	.	.	.	8g\	-mi-	16b\	.	.	.	.	.	.	.	.	.
.	.	.	.	.	16a/JJ	.	.	.	.	.	16a\JJ	.	.	.	.	.	.	.	.	.
!	!	!	!	!	!LO:TX:t=P:problem=mixed beam	!	!	!	!	!	!	!	!	!	!	!	!	!	!	!
4BB/	6	.	4d/	.	8g/L	.	.	.	4g\	-ne	4g\	-nit	.	.	.	.	.	.	.	.
.	.	.	.	.	8gg\J	.	.	.	.	.	.	.	.	.	.	.	.	.	.	.
4r	.	.	4r	.	16bb\LL	.	.	.	4r	.	4r	.	.	.	.	.	.	.	.	.
.	.	.	.	.	16gg\	.	.	.	.	.	.	.	.	.	.	.	.	.	.	.
.	.	.	.	.	16ff#\	.	.	.	.	.	.	.	.	.	.	.	.	.	.	.
.	.	.	.	.	16gg\JJ	.	.	.	.	.	.	.	.	.	.	.	.	.	.	.
!	!	!	!	!	!	!	!	!	!LO:LB:g=original	!	!	!	!	!	!	!	!	!	!	!
=15	=15	=15	=15	=15	=15	=15	=15	=15	=15	=15	=15	=15	=15	=15	=15	=15	=15	=15	=15	=15
4C/	.	.	8g|/L	.	8ee\L	.	2.ryy	2.ryy	8g\L	Do-	8ee\L	Do-	2.ryy	2.ryy	2.ryy	2.ryy	2.ryy	0.r	0.r	.
.	.	.	(8e/	.	8cc\J	.	.	.	8e\	.	8cc\	.	.	.	.	.	.	.	.	.
4D\	4	.	8d/	.	8b/L	.	.	.	8d\	.	8b\	.	.	.	.	.	.	.	.	.
.	.	.	8c/	.	8a/	.	.	.	8c\	.	8a\J	.	.	.	.	.	.	.	.	.
4DD/	3	.	8B/	.	8g/	.	.	.	8B\	-mi-	8g/L	-mi-	.	.	.	.	.	.	.	.
.	.	.	8A/J)	.	8f#/J	.	.	.	8A\J	.	8f#/J	.	.	.	.	.	.	.	.	.
=16	=16	=16	=16	=16	=16	=16	=16	=16	=16	=16	=16	=16	=16	=16	=16	=16	=16	=16	=16	=16
.	.	.	.	.	8qf#/	.	.	.	.	.	.	.	.	.	.	.	.	.	.	.
4GG/	.	.	4B/	.	2g/	.	2.ryy	2.ryy	2B/	-ni	2g\	-ni	2.ryy	2.ryy	2.ryy	2.ryy	2.ryy	.	.	.
8G\L	.	.	4B/	.	.	.	.	.	.	.	.	.	.	.	.	.	.	.	.	.
8D\	.	.	.	.	.	.	.	.	.	.	.	.	.	.	.	.	.	.	.	.
8BB\	.	.	4r	.	4r	.	.	.	4r	.	4r	.	.	.	.	.	.	.	.	.
8D\J	.	.	.	.	.	.	.	.	.	.	.	.	.	.	.	.	.	.	.	.
!	!	!	!	!	!	!	!	!	!	!	!LO:LB:g=original	!	!	!	!	!	!	!	!	!
=17	=17	=17	=17	=17	=17	=17	=17	=17	=17	=17	=17	=17	=17	=17	=17	=17	=17	=17	=17	=17
4G\	.	.	2b\	.	2dd\	.	2.ryy	2.ryy	2b\	be-	2dd\	Be-	2.ryy	2.ryy	2.ryy	2.ryy	2.ryy	.	.	.
4GG/	.	.	.	.	.	.	.	.	.	.	.	.	.	.	.	.	.	.	.	.
4G\	.	.	(16cc\LL	.	16ee\LL	.	.	.	16cc\LL	-ne-	16ee\LL	-ne-	.	.	.	.	.	.	.	.
.	.	.	16b\	.	16dd\	.	.	.	16b\	.	16dd\	.	.	.	.	.	.	.	.	.
.	.	.	16a\	.	16cc\	.	.	.	16a\	.	16cc\	.	.	.	.	.	.	.	.	.
.	.	.	16g\JJ)	.	16b\JJ	.	.	.	16g\JJ	.	16b\JJ	.	.	.	.	.	.	.	.	.
!	!	!	!	!	!LO:LB:g=original	!	!	!	!	!	!	!	!	!	!	!	!	!	!	!
=18	=18	=18	=18	=18	=18	=18	=18	=18	=18	=18	=18	=18	=18	=18	=18	=18	=18	=18	=18	=18
.	.	.	.	.	.	.	.	.	8qb/	.	8qdd/	.	.	.	.	.	.	.	.	.
4D\	7	.	(16b/LL	.	16dd\LL	.	2.ryy	2.ryy	8a\L	-di-	8cc\L	-di-	2.ryy	2.ryy	2.ryy	2.ryy	2.ryy	.	.	.
.	.	.	16a/	.	16cc\	.	.	.	.	.	.	.	.	.	.	.	.	.	.	.
.	.	.	16g/	.	16b\	.	.	.	16g\L	.	16b\L	.	.	.	.	.	.	.	.	.
.	.	.	16a/JJ	.	16cc\JJ	.	.	.	16a\JJ	.	16cc\JJ	.	.	.	.	.	.	.	.	.
4F#\	.	.	8f#/L)	.	4a/	.	.	.	4f#\	-ctus	4a\	-ctus	.	.	.	.	.	.	.	.
.	.	.	8d'/	.	.	.	.	.	.	.	.	.	.	.	.	.	.	.	.	.
4D\	.	.	8f#'/	.	8r	.	.	.	8r	.	8r	.	.	.	.	.	.	.	.	.
.	.	.	8a'/J	.	8cc\	.	.	.	8a\	qui	8cc\	qui	.	.	.	.	.	.	.	.
!	!	!	!LO:LB:g=original	!	!	!	!	!	!	!	!	!	!	!	!	!	!	!	!	!
=19	=19	=19	=19	=19	=19	=19	=19	=19	=19	=19	=19	=19	=19	=19	=19	=19	=19	=19	=19	=19
4GG/	.	.	8a/L	.	8cc\L	.	2.ryy	2.ryy	8a\L	ve-	8cc\L	ve-	2.ryy	2.ryy	2.ryy	2.ryy	2.ryy	0.r	0.r	.
.	.	.	8g/J	.	8b\J	.	.	.	8g\J	.	8b\J	.	.	.	.	.	.	.	.	.
4G\	.	.	8g/L	.	4b\	.	.	.	4g\	-nit	4b\	-nit	.	.	.	.	.	.	.	.
.	.	.	8B/	.	.	.	.	.	.	.	.	.	.	.	.	.	.	.	.	.
4G\	.	.	8d/	.	8r	.	.	.	8r	.	8r	.	.	.	.	.	.	.	.	.
.	.	.	8g/J	.	8b\	.	.	.	8g\	in	8b\	in	.	.	.	.	.	.	.	.
=20	=20	=20	=20	=20	=20	=20	=20	=20	=20	=20	=20	=20	=20	=20	=20	=20	=20	=20	=20	=20
*2\right	*	*	*	*	*	*	*	*	*	*	*	*	*	*	*	*	*	*	*	*
*tremolo	*	*	*tremolo	*	*	*	*	*	*	*	*	*	*	*	*	*	*	*	*	*
8D\L	6 3	.	8f#/L	.	8a\L	.	2.ryy	2.ryy	2f#\	no-	4a\	no-	2.ryy	2.ryy	2.ryy	2.ryy	2.ryy	.	.	.
8D\	.	.	8f#/	.	8dd\	.	.	.	.	.	.	.	.	.	.	.	.	.	.	.
8D\	.	.	8f#/	.	8dd\	.	.	.	.	.	4dd\	.	.	.	.	.	.	.	.	.
8D\	.	.	8f#/J	.	8dd\	.	.	.	.	.	.	.	.	.	.	.	.	.	.	.
*	*	*	*Xtremolo	*	*	*	*	*	*	*	*	*	*	*	*	*	*	*	*	*
8D\	6 4	.	8g/L	.	8b\	.	.	.	8g\	-mi-	8b\	-mi-	.	.	.	.	.	.	.	.
8D\J	.	.	8g/J	.	8b\J	.	.	.	8g\	-ne	8b\	-ne	.	.	.	.	.	.	.	.
*Xtremolo	*	*	*	*	*	*	*	*	*	*	*	*	*	*	*	*	*	*	*	*
!	!	!	!	!	!	!	!	!	!LO:LB:g=original	!	!	!	!	!	!	!	!	!	!	!
=21	=21	=21	=21	=21	=21	=21	=21	=21	=21	=21	=21	=21	=21	=21	=21	=21	=21	=21	=21	=21
8D\L	.	.	8f#/L	.	8a\L	.	2.ryy	2.ryy	8f#\L	Do-	8a\L	Do-	2.ryy	2.ryy	2.ryy	2.ryy	2.ryy	.	.	.
8G\J	.	.	8g/	.	8dd\	.	.	.	16g\L	.	16b\L	.	.	.	.	.	.	.	.	.
.	.	.	.	.	.	.	.	.	16e\JJ	.	16g\JJ	.	.	.	.	.	.	.	.	.
4A\	6 4	.	8f#/	.	8dd\	.	.	.	4d\	.	4f#/	.	.	.	.	.	.	.	.	.
.	.	.	8f#/	.	8dd\	.	.	.	.	.	.	.	.	.	.	.	.	.	.	.
4AA/	5 3	.	8e/	.	8cc#X\	.	.	.	4c#X\	-mi-	4e/	-mi-	.	.	.	.	.	.	.	.
.	.	.	8e/J	.	8cc#\J	.	.	.	.	.	.	.	.	.	.	.	.	.	.	.
=22	=22	=22	=22	=22	=22	=22	=22	=22	=22	=22	=22	=22	=22	=22	=22	=22	=22	=22	=22	=22
8D'\L	.	.	4f#/	.	4dd\	.	2.ryy	2.ryy	2d\	-ni	2d/	-ni	2.ryy	2.ryy	2.ryy	2.ryy	2.ryy	.	.	.
8A'\	.	.	.	.	.	.	.	.	.	.	.	.	.	.	.	.	.	.	.	.
8G'\	.	.	4r	.	4r	.	.	.	.	.	.	.	.	.	.	.	.	.	.	.
8F#'\	.	.	.	.	.	.	.	.	.	.	.	.	.	.	.	.	.	.	.	.
8E'\	.	.	4r	.	4r	.	.	.	4r	.	4r	.	.	.	.	.	.	.	.	.
8D'\J	.	.	.	.	.	.	.	.	.	.	.	.	.	.	.	.	.	.	.	.
!LO:LB:g=original	!	!	!	!	!	!	!	!	!	!	!	!	!	!	!	!	!	!	!	!
=23	=23	=23	=23	=23	=23	=23	=23	=23	=23	=23	=23	=23	=23	=23	=23	=23	=23	=23	=23	=23
4AA/	7 #	.	16A/LL	.	8cc#X\L	.	2.ryy	2.ryy	2e\	Be-	2cc#X\	Be-	2.ryy	2.ryy	2.ryy	2.ryy	2.ryy	0.r	0.r	.
.	.	.	16g/	.	.	.	.	.	.	.	.	.	.	.	.	.	.	.	.	.
.	.	.	16e/	.	8ee\J	.	.	.	.	.	.	.	.	.	.	.	.	.	.	.
.	.	.	16g/JJ	.	.	.	.	.	.	.	.	.	.	.	.	.	.	.	.	.
*	*	*	*rep	*	*	*	*	*	*	*	*	*	*	*	*	*	*	*	*	*
4A\	.	.	16A/LL	.	8r	.	.	.	.	.	.	.	.	.	.	.	.	.	.	.
.	.	.	16g/	.	.	.	.	.	.	.	.	.	.	.	.	.	.	.	.	.
.	.	.	16e/	.	8gg\L	.	.	.	.	.	.	.	.	.	.	.	.	.	.	.
.	.	.	16g/JJ	.	.	.	.	.	.	.	.	.	.	.	.	.	.	.	.	.
*	*	*	*Xrep	*	*	*	*	*	*	*	*	*	*	*	*	*	*	*	*	*
*	*	*	*rep	*	*	*	*	*	*	*	*	*	*	*	*	*	*	*	*	*
4A\	.	.	16A/LL	.	8ee\	.	.	.	4e\	-ne-	4cc#\	-ne-	.	.	.	.	.	.	.	.
.	.	.	16g/	.	.	.	.	.	.	.	.	.	.	.	.	.	.	.	.	.
.	.	.	16e/	.	8cc#\J	.	.	.	.	.	.	.	.	.	.	.	.	.	.	.
.	.	.	16g/JJ	.	.	.	.	.	.	.	.	.	.	.	.	.	.	.	.	.
*	*	*	*Xrep	*	*	*	*	*	*	*	*	*	*	*	*	*	*	*	*	*
=24	=24	=24	=24	=24	=24	=24	=24	=24	=24	=24	=24	=24	=24	=24	=24	=24	=24	=24	=24	=24
4D\	#	.	16A/LL	.	16dd\LL	.	2.ryy	2.ryy	4f#\	-dic-	4dd\	-di-	2.ryy	2.ryy	2.ryy	2.ryy	2.ryy	.	.	.
.	.	.	16f#/	.	16ee\	.	.	.	.	.	.	.	.	.	.	.	.	.	.	.
.	.	.	16d/	.	16ff#\	.	.	.	.	.	.	.	.	.	.	.	.	.	.	.
.	.	.	16f#/JJ	.	16ee\JJ	.	.	.	.	.	.	.	.	.	.	.	.	.	.	.
*	*	*	*rep	*	*	*	*	*	*	*	*	*	*	*	*	*	*	*	*	*
4d\	.	.	16A/LL	.	8dd\L	.	.	.	4f#\	-tus	4a\	-ctus	.	.	.	.	.	.	.	.
.	.	.	16f#/	.	.	.	.	.	.	.	.	.	.	.	.	.	.	.	.	.
.	.	.	16d/	.	16aa\L	.	.	.	.	.	.	.	.	.	.	.	.	.	.	.
.	.	.	16f#/JJ	.	16ff#\JJ	.	.	.	.	.	.	.	.	.	.	.	.	.	.	.
*	*	*	*Xrep	*	*	*	*	*	*	*	*	*	*	*	*	*	*	*	*	*
*	*	*	*rep	*	*	*	*	*	*	*	*	*	*	*	*	*	*	*	*	*
!	!	!	!	!	!	!	!	!	!	!	!LO:LB:g=original	!	!	!	!	!	!	!	!	!
4r	.	.	16A/LL	.	8dd\L	.	.	.	4r	.	4r	.	.	.	.	.	.	.	.	.
.	.	.	16f#/	.	.	.	.	.	.	.	.	.	.	.	.	.	.	.	.	.
.	.	.	16d/	.	8a\J	.	.	.	.	.	.	.	.	.	.	.	.	.	.	.
.	.	.	16f#/JJ	.	.	.	.	.	.	.	.	.	.	.	.	.	.	.	.	.
*	*	*	*Xrep	*	*	*	*	*	*	*	*	*	*	*	*	*	*	*	*	*
=25	=25	=25	=25	=25	=25	=25	=25	=25	=25	=25	=25	=25	=25	=25	=25	=25	=25	=25	=25	=25
4AA/	7 #	.	(>16A/LL	.	8cc#X\L	.	2.ryy	2.ryy	2.e\	qui	2.cc#X\	qui	2.ryy	2.ryy	2.ryy	2.ryy	2.ryy	.	.	.
.	.	.	16g/	.	.	.	.	.	.	.	.	.	.	.	.	.	.	.	.	.
.	.	.	16e/	.	8ee\J	.	.	.	.	.	.	.	.	.	.	.	.	.	.	.
.	.	.	16g/JJ)	.	.	.	.	.	.	.	.	.	.	.	.	.	.	.	.	.
*	*	*	*rep	*	*	*	*	*	*	*	*	*	*	*	*	*	*	*	*	*
4A\	.	.	(>16A/LL	.	8r	.	.	.	.	.	.	.	.	.	.	.	.	.	.	.
.	.	.	16g/	.	.	.	.	.	.	.	.	.	.	.	.	.	.	.	.	.
.	.	.	16e/	.	8gg\L	.	.	.	.	.	.	.	.	.	.	.	.	.	.	.
.	.	.	16g/JJ)	.	.	.	.	.	.	.	.	.	.	.	.	.	.	.	.	.
*	*	*	*Xrep	*	*	*	*	*	*	*	*	*	*	*	*	*	*	*	*	*
*	*	*	*rep	*	*	*	*	*	*	*	*	*	*	*	*	*	*	*	*	*
4A\	.	.	(>16A/LL	.	8ee\	.	.	.	.	.	.	.	.	.	.	.	.	.	.	.
.	.	.	16g/	.	.	.	.	.	.	.	.	.	.	.	.	.	.	.	.	.
.	.	.	16e/	.	8cc#\J	.	.	.	.	.	.	.	.	.	.	.	.	.	.	.
.	.	.	16g/JJ)	.	.	.	.	.	.	.	.	.	.	.	.	.	.	.	.	.
*	*	*	*Xrep	*	*	*	*	*	*	*	*	*	*	*	*	*	*	*	*	*
=26	=26	=26	=26	=26	=26	=26	=26	=26	=26	=26	=26	=26	=26	=26	=26	=26	=26	=26	=26	=26
4D\	.	.	(>16A/LL	.	16dd\LL	.	2.ryy	2.ryy	4f#\	ve-	4dd\	ve-	2.ryy	2.ryy	2.ryy	2.ryy	2.ryy	.	.	.
.	.	.	16f#/	.	16ee\	.	.	.	.	.	.	.	.	.	.	.	.	.	.	.
.	.	.	16d/	.	16ff#\	.	.	.	.	.	.	.	.	.	.	.	.	.	.	.
.	.	.	16f#/JJ)	.	16ee\JJ	.	.	.	.	.	.	.	.	.	.	.	.	.	.	.
*	*	*	*rep	*	*	*	*	*	*	*	*	*	*	*	*	*	*	*	*	*
!	!	!	!	!	!LO:LB:g=original	!	!	!	!	!	!	!	!	!	!	!	!	!	!	!
4d\	.	.	(>16A/LL	.	8dd\L	.	.	.	4f#\	-nit	4a\	-nit	.	.	.	.	.	.	.	.
.	.	.	16f#/	.	.	.	.	.	.	.	.	.	.	.	.	.	.	.	.	.
.	.	.	16d/	.	16aa\L	.	.	.	.	.	.	.	.	.	.	.	.	.	.	.
.	.	.	16f#/JJ)	.	16ff#\JJ	.	.	.	.	.	.	.	.	.	.	.	.	.	.	.
*	*	*	*Xrep	*	*	*	*	*	*	*	*	*	*	*	*	*	*	*	*	*
*	*	*	*rep	*	*	*	*	*	*	*	*	*	*	*	*	*	*	*	*	*
4r	.	.	(>16A/LL	.	8dd\L	.	.	.	4f#\	in	8r	.	.	.	.	.	.	.	.	.
.	.	.	16f#/	.	.	.	.	.	.	.	.	.	.	.	.	.	.	.	.	.
.	.	.	16d/	.	8a\J	.	.	.	.	.	8a\	in	.	.	.	.	.	.	.	.
.	.	.	16f#/JJ)	.	.	.	.	.	.	.	.	.	.	.	.	.	.	.	.	.
*	*	*	*Xrep	*	*	*	*	*	*	*	*	*	*	*	*	*	*	*	*	*
=27	=27	=27	=27	=27	=27	=27	=27	=27	=27	=27	=27	=27	=27	=27	=27	=27	=27	=27	=27	=27
4G\	.	.	(>8d/L	.	8b\L	.	2.ryy	2.ryy	8g\L	no-	8b\L	no-	2.ryy	2.ryy	2.ryy	2.ryy	2.ryy	1.r	1.r	.
.	.	.	8b/	.	8gg\	.	.	.	8b\	.	8gg\	.	.	.	.	.	.	.	.	.
4A\	4	.	8a/	.	8ff#\	.	.	.	8a\	.	8ff#\	.	.	.	.	.	.	.	.	.
.	.	.	8g/)	.	8ee\	.	.	.	8g\J	.	8ee\	.	.	.	.	.	.	.	.	.
4AA/	#	.	(>8f#/	.	8dd\	.	.	.	8f#\L	-mi-	8dd\	.	.	.	.	.	.	.	.	.
.	.	.	8e/J)	.	8cc#X\J	.	.	.	8e\J	.	8cc#X\J	.	.	.	.	.	.	.	.	.
*	*	*	*custos:f	*	*	*	*	*	*	*	*	*	*	*	*	*	*	*	*	*
!	!	!	!LO:LB:g=original	!	!	!	!	!	!	!	!	!	!	!	!	!	!	!	!	!
=28	=28	=28	=28	=28	=28	=28	=28	=28	=28	=28	=28	=28	=28	=28	=28	=28	=28	=28	=28	=28
8D\L	.	.	8f#/L	.	8dd\L	.	2.ryy	2.ryy	8f#\L	-ne	8dd\	-mi-	2.ryy	2.ryy	2.ryy	2.ryy	2.ryy	.	.	.
8G\J	.	.	8g/J	.	8ee\J	.	.	.	8g\J	.	8ee\	-ne	.	.	.	.	.	.	.	.
*	*	*	*	*	*	*	*	*	*custos:f	*	*	*	*	*	*	*	*	*	*	*
!	!	!	!	!	!	!	!	!	!LO:LB:g=original	!	!	!	!	!	!	!	!	!	!	!
4A\	4	.	8f#/L	.	8dd\L	.	.	.	4f#\	Do-	4dd\	Do-	.	.	.	.	.	.	.	.
.	.	.	8f#/	.	8dd\	.	.	.	.	.	.	.	.	.	.	.	.	.	.	.
4AA/	#	.	8e/	.	8cc#X\	.	.	.	4e\	-mi-	4cc#X\	-mi-	.	.	.	.	.	.	.	.
.	.	.	8e/J	.	8cc#\J	.	.	.	.	.	.	.	.	.	.	.	.	.	.	.
=29	=29	=29	=29	=29	=29	=29	=29	=29	=29	=29	=29	=29	=29	=29	=29	=29	=29	=29	=29	=29
*	*	*	*^	*	*	*	*	*	*	*	*	*	*	*	*	*	*	*	*	*
*tremolo	*	*	*tremolo	*tremolo	*	*	*	*	*	*	*	*	*	*	*	*	*	*	*	*	*
!	!	!LO:DY:a	!	!	!	!	!LO:DY:a	!	!	!	!	!	!	!	!	!	!	!	!	!	!
8D\L	.	ff	8a/L	8f#\L	.	2dd\	ff	2.ryy	2.ryy	2f#\	-ni	2dd\	-ni	2.ryy	2.ryy	2.ryy	2.ryy	2.ryy	2.aa\	2ddd\	.
8D\	.	.	8a/	8f#\	.	.	.	.	.	.	.	.	.	.	.	.	.	.	.	.	.
8D\	.	.	8a/	8f#\	.	.	.	.	.	.	.	.	.	.	.	.	.	.	.	.	.
8D\	.	.	8a/J	8f#\J	.	.	.	.	.	.	.	.	.	.	.	.	.	.	.	.	.
*	*	*	*Xtremolo	*Xtremolo	*	*	*	*	*	*	*	*	*	*	*	*	*	*	*	*	*
8D\	.	.	8a/L	8f#\L	.	16ff#\LL	.	.	.	4r	.	4r	.	.	.	.	.	.	.	8fff#\L	.
.	.	.	.	.	.	16dd\	.	.	.	.	.	.	.	.	.	.	.	.	.	.	.
8D\J	.	.	8a/J	8e\J	.	16gg\	.	.	.	.	.	.	.	.	.	.	.	.	.	8eee\J	.
.	.	.	.	.	.	16ee\JJ	.	.	.	.	.	.	.	.	.	.	.	.	.	.	.
=30	=30	=30	=30	=30	=30	=30	=30	=30	=30	=30	=30	=30	=30	=30	=30	=30	=30	=30	=30	=30	=30
*	*	*	*tremolo	*tremolo	*	*	*	*	*	*	*	*	*	*	*	*	*	*	*	*	*
8D\L	.	.	8a/L	8f#\L	.	2aa\	.	2.ryy	2.ryy	0.r	.	0.r	.	2.ryy	2.ryy	2.ryy	2.ryy	2.ryy	2.aa\	2ddd\	.
8D\	.	.	8a/	8f#\	.	.	.	.	.	.	.	.	.	.	.	.	.	.	.	.	.
8D\	.	.	8a/	8f#\	.	.	.	.	.	.	.	.	.	.	.	.	.	.	.	.	.
8D\J	.	.	8a/J	8f#\J	.	.	.	.	.	.	.	.	.	.	.	.	.	.	.	.	.
*Xtremolo	*	*	*Xtremolo	*Xtremolo	*	*	*	*	*	*	*	*	*	*	*	*	*	*	*	*	*
8D/L	.	.	8a/L	8f#\L	.	16ff#\LL	.	.	.	.	.	.	.	.	.	.	.	.	.	8fff#\L	.
.	.	.	.	.	.	16dd\	.	.	.	.	.	.	.	.	.	.	.	.	.	.	.
8AA/J	7 #	.	8a/J	8e\J	.	16ee\	.	.	.	.	.	.	.	.	.	.	.	.	.	8eee\J	.
.	.	.	.	.	.	16cc#X\JJ	.	.	.	.	.	.	.	.	.	.	.	.	.	.	.
=31	=31	=31	=31	=31	=31	=31	=31	=31	=31	=31	=31	=31	=31	=31	=31	=31	=31	=31	=31	=31	=31
*tremolo	*	*	*tremolo	*tremolo	*	*	*	*	*	*	*	*	*	*	*	*	*	*	*	*	*
8D\L	.	.	8a/L	8f#\L	.	2dd\	.	2.ryy	2.ryy	.	.	.	.	2.ryy	2.ryy	2.ryy	2.ryy	2.ryy	2.aa\	2ddd\	.
8D\	.	.	8a/	8f#\	.	.	.	.	.	.	.	.	.	.	.	.	.	.	.	.	.
8D\	.	.	8a/	8f#\	.	.	.	.	.	.	.	.	.	.	.	.	.	.	.	.	.
8D\	.	.	8a/J	8f#\J	.	.	.	.	.	.	.	.	.	.	.	.	.	.	.	.	.
*	*	*	*Xtremolo	*Xtremolo	*	*	*	*	*	*	*	*	*	*	*	*	*	*	*	*	*
8D\	.	.	8a/L	8f#\L	.	16ff#\LL	.	.	.	.	.	.	.	.	.	.	.	.	.	8ddd\L	.
.	.	.	.	.	.	16dd\	.	.	.	.	.	.	.	.	.	.	.	.	.	.	.
8D\J	.	.	8a/J	8e\J	.	16gg\	.	.	.	.	.	.	.	.	.	.	.	.	.	8eee\J	.
.	.	.	.	.	.	16ee\JJ	.	.	.	.	.	.	.	.	.	.	.	.	.	.	.
=32	=32	=32	=32	=32	=32	=32	=32	=32	=32	=32	=32	=32	=32	=32	=32	=32	=32	=32	=32	=32	=32
*	*	*	*tremolo	*tremolo	*	*	*	*	*	*	*	*	*	*	*	*	*	*	*	*	*
8D\L	.	.	8a/L	8f#\L	.	2aa\	.	2.ryy	2.ryy	.	.	.	.	2.ryy	2.ryy	2.ryy	2.ryy	2.ryy	2.aa\	2ddd\	.
8D\	.	.	8a/	8f#\	.	.	.	.	.	.	.	.	.	.	.	.	.	.	.	.	.
8D\	.	.	8a/	8f#\	.	.	.	.	.	.	.	.	.	.	.	.	.	.	.	.	.
8D\J	.	.	8a/J	8f#\J	.	.	.	.	.	.	.	.	.	.	.	.	.	.	.	.	.
*Xtremolo	*	*	*Xtremolo	*Xtremolo	*	*	*	*	*	*	*	*	*	*	*	*	*	*	*	*	*
!LO:TX:t=P:problem=mixed beam	!	!	!	!	!	!	!	!	!	!	!	!	!	!	!	!	!	!	!	!	!
8D\L	.	.	8a/L	8f#\L	.	16ff#\LL	.	.	.	.	.	.	.	.	.	.	.	.	.	8fff#\L	.
.	.	.	.	.	.	16dd\	.	.	.	.	.	.	.	.	.	.	.	.	.	.	.
8AA/J	#	.	8a/J	8e\J	.	16ee\	.	.	.	.	.	.	.	.	.	.	.	.	.	8eee\J	.
.	.	.	.	.	.	16cc#X\JJ	.	.	.	.	.	.	.	.	.	.	.	.	.	.	.
*	*	*	*v	*v	*	*	*	*	*	*	*	*	*	*	*	*	*	*	*	*	*
=33	=33	=33	=33	=33	=33	=33	=33	=33	=33	=33	=33	=33	=33	=33	=33	=33	=33	=33	=33	=33
4D\	.	.	4a 4f#/	.	4dd\	.	2.ryy	2.ryy	.	.	.	.	2.ryy	2.ryy	2.ryy	2.ryy	2.ryy	4aa\	4ddd\	.
8r	.	.	4a 4f#/	.	4d/	.	.	.	.	.	.	.	.	.	.	.	.	4r	4r	.
8D\L	.	.	.	.	.	.	.	.	.	.	.	.	.	.	.	.	.	.	.	.
8F#\	.	.	4r	.	4r	.	.	.	.	.	.	.	.	.	.	.	.	4r	4r	.
!	!	!LO:DY:a	!	!	!	!	!	!	!	!	!	!	!	!	!	!	!	!	!	!
8A\J	.	pp	.	.	.	.	.	.	.	.	.	.	.	.	.	.	.	.	.	.
=34	=34	=34	=34	=34	=34	=34	=34	=34	=34	=34	=34	=34	=34	=34	=34	=34	=34	=34	=34	=34
!	!	!	!	!LO:DY:a:rj	!	!LO:DY:a	!	!	!	!	!	!	!	!	!	!	!	!	!	!
4d\	.	.	2ff#\	p	2aa\	p	2.ryy	2.ryy	2f#\	Be-	2a\	Be-	2.ryy	2.ryy	2.ryy	2.ryy	2.ryy	0.r	0.r	.
4D\	.	.	.	.	.	.	.	.	.	.	.	.	.	.	.	.	.	.	.	.
.	.	.	.	.	.	.	.	.	8qf#/	.	8qa/	.	.	.	.	.	.	.	.	.
4A\	7 #	.	(16ff#\LL	.	16aa\LL	.	.	.	8e\L	-ne-	8g/L	-ne-	.	.	.	.	.	.	.	.
.	.	.	16ee\	.	16gg\	.	.	.	.	.	.	.	.	.	.	.	.	.	.	.
.	.	.	16dd\	.	16ff#\	.	.	.	16d\L	.	16f#/L	.	.	.	.	.	.	.	.	.
.	.	.	16ee\JJ)	.	16gg\JJ	.	.	.	16e\JJ	.	16g/JJ	.	.	.	.	.	.	.	.	.
=35	=35	=35	=35	=35	=35	=35	=35	=35	=35	=35	=35	=35	=35	=35	=35	=35	=35	=35	=35	=35
4d\	.	.	4ee\	.	4gg\	.	2.ryy	2.ryy	4e\	-dic-	4g/	-dic-	2.ryy	2.ryy	2.ryy	2.ryy	2.ryy	.	.	.
4D\	.	.	8dd\L	.	8ff#\L	.	.	.	4d\	-tus	4f#/	-tus	.	.	.	.	.	.	.	.
.	.	.	8dd\	.	8ddd\	.	.	.	.	.	.	.	.	.	.	.	.	.	.	.
4F#\	6	.	8dd\	.	8aa\	.	.	.	4f#\	qui	4a\	qui	.	.	.	.	.	.	.	.
.	.	.	8dd\J	.	8aa\J	.	.	.	.	.	.	.	.	.	.	.	.	.	.	.
*	*	*	*	*	*	*	*	*	*	*	*custos:b	*	*	*	*	*	*	*	*	*
!	!	!	!	!	!LO:LB:g=original	!	!	!	!	!	!LO:LB:g=original	!	!	!	!	!	!	!	!	!
=36	=36	=36	=36	=36	=36	=36	=36	=36	=36	=36	=36	=36	=36	=36	=36	=36	=36	=36	=36	=36
4G\	.	.	4dd\	.	4bb\	.	2.ryy	2.ryy	8g\L	ve-	8b\L	ve-	2.ryy	2.ryy	2.ryy	2.ryy	2.ryy	.	.	.
.	.	.	.	.	.	.	.	.	8b\J	.	8gg\	.	.	.	.	.	.	.	.	.
4A\	4	.	(8dd\L	.	8aa\L	.	.	.	8a\L	-nit	8ff#\	-nit	.	.	.	.	.	.	.	.
.	.	.	8b\	.	8gg\	.	.	.	8g\J	.	8ee\J	.	.	.	.	.	.	.	.	.
!LO:LB:g=original	!	!	!	!	!	!	!	!	!	!	!	!	!	!	!	!	!	!	!	!
4AA/	#	.	8a\	.	8ff#\	.	.	.	8f#\L	in	8dd\L	qui	.	.	.	.	.	.	.	.
.	.	.	8g\J)	.	8ee\J	.	.	.	8e\J	.	8cc#X\J	.	.	.	.	.	.	.	.	.
=37	=37	=37	=37	=37	=37	=37	=37	=37	=37	=37	=37	=37	=37	=37	=37	=37	=37	=37	=37	=37
4BB/	.	.	4f#/	.	16dd\LL	.	2.ryy	2.ryy	8f#\	no-	16dd\LL	ve-	2.ryy	2.ryy	2.ryy	2.ryy	2.ryy	.	.	.
.	.	.	.	.	16ee\	.	.	.	.	.	16ee\JJ	.	.	.	.	.	.	.	.	.
.	.	.	.	.	16ff#\	.	.	.	8f#\	-mi-	16ff#\LL	.	.	.	.	.	.	.	.	.
.	.	.	.	.	16ee\JJ	.	.	.	.	.	16ee\JJ	.	.	.	.	.	.	.	.	.
4F#\	6	.	4a/	.	8dd\L	.	.	.	4f#\	-ne	4dd\	-nit	.	.	.	.	.	.	.	.
.	.	.	.	.	16aa\L	.	.	.	.	.	.	.	.	.	.	.	.	.	.	.
.	.	.	.	.	16ff#\JJ	.	.	.	.	.	.	.	.	.	.	.	.	.	.	.
4r	.	.	4r	.	8dd\L	.	.	.	4r	.	4r	.	.	.	.	.	.	.	.	.
.	.	.	.	.	8a\J	.	.	.	.	.	.	.	.	.	.	.	.	.	.	.
!	!	!	!	!	!	!	!	!	!LO:LB:g=original	!	!	!	!	!	!	!	!	!	!	!
=38	=38	=38	=38	=38	=38	=38	=38	=38	=38	=38	=38	=38	=38	=38	=38	=38	=38	=38	=38	=38
4G\	.	.	8d/L	.	8b\L	.	2.ryy	2.ryy	8g\L	Do-	8b\L	Do-	2.ryy	2.ryy	2.ryy	2.ryy	2.ryy	1.r	1.r	.
.	.	.	8b/J	.	8gg\	.	.	.	8b\	.	8gg\	.	.	.	.	.	.	.	.	.
*	*	*	*custos:a	*	*	*	*	*	*	*	*	*	*	*	*	*	*	*	*	*
!	!	!	!LO:LB:g=original	!	!	!	!	!	!	!	!	!	!	!	!	!	!	!	!	!
4A\	4	.	(8a/L	.	8ff#\	.	.	.	8a\	.	8ff#\	.	.	.	.	.	.	.	.	.
.	.	.	8g/	.	8ee\	.	.	.	8g\J	.	8ee\J	.	.	.	.	.	.	.	.	.
4AA/	#	.	8f#/	.	8dd\	.	.	.	8f#\L	-mi-	8dd\L	-mi-	.	.	.	.	.	.	.	.
.	.	.	8e/J)	.	8cc#X\J	.	.	.	8e\J	.	8cc#X\J	.	.	.	.	.	.	.	.	.
=39	=39	=39	=39	=39	=39	=39	=39	=39	=39	=39	=39	=39	=39	=39	=39	=39	=39	=39	=39	=39
!	!	!	!	!	!LO:SIC:v:s=8qcc#/	!	!	!	!	!	!LO:SIC:v:s=8qcc#/	!	!	!	!	!	!	!	!	!
.	.	.	.	.	8qcc/	.	.	.	8qe/	.	8qcc/	.	.	.	.	.	.	.	.	.
4D'/	.	.	2f#/	.	2dd\	.	2.ryy	2.ryy	2f#\	-ni	2dd\	-ni	2.ryy	2.ryy	2.ryy	2.ryy	2.ryy	.	.	.
8D'/L	.	.	.	.	.	.	.	.	.	.	.	.	.	.	.	.	.	.	.	.
8Cn'/	.	.	.	.	.	.	.	.	.	.	.	.	.	.	.	.	.	.	.	.
8BB'/	.	.	4r	.	4r	.	.	.	4r	.	4r	.	.	.	.	.	.	.	.	.
8AA'/J	.	.	.	.	.	.	.	.	.	.	.	.	.	.	.	.	.	.	.	.
=40	=40	=40	=40	=40	=40	=40	=40	=40	=40	=40	=40	=40	=40	=40	=40	=40	=40	=40	=40	=40
!	!	!	!	!	!	!	!	!	!	!	!	!	!	!	!	!	!	!	!	!LO:DY:a:rj
4GG/	.	.	2b/	.	2dd\	.	2.ryy	2.ryy	2b\	Be-	2dd\	Be-	2.ryy	2.ryy	2.ryy	2.ryy	2.ryy	2bb\	2ddd\	p
4BB/	5	.	.	.	.	.	.	.	.	.	.	.	.	.	.	.	.	.	.	.
.	.	.	.	.	.	.	.	.	8qb/	.	8qdd/	.	.	.	.	.	.	.	.	.
*	*	*	*	*	*	*	*	*	*	*	*	*	*	*	*	*	*	*	*custos:ddd	*
!	!	!	!	!	!	!	!	!	!	!	!	!	!	!	!	!	!	!	!LO:LB:g=original	!
4D\	7 3	.	(16b/LL	.	16dd\LL	.	.	.	8a\L	-ne-	8ccn\L	-ne-	.	.	.	.	.	16bb\LL	16ddd\LL	.
.	.	.	16a/	.	16ccn\	.	.	.	.	.	.	.	.	.	.	.	.	16aa\	16ccc\	.
.	.	.	16g/	.	16b\	.	.	.	16g\L	.	16b\L	.	.	.	.	.	.	16gg\	16bb\	.
.	.	.	16a/JJ)	.	16cc\JJ	.	.	.	16a\JJ	.	16cc\JJ	.	.	.	.	.	.	16aa\JJ	16ccc\JJ	.
=41	=41	=41	=41	=41	=41	=41	=41	=41	=41	=41	=41	=41	=41	=41	=41	=41	=41	=41	=41	=41
4G\	.	.	4a/	.	4cc\	.	2.ryy	2.ryy	4a\	-dic-	4cc\	-dic-	2.ryy	2.ryy	2.ryy	2.ryy	2.ryy	4aa\	4ccc\	.
4GG/	.	.	8g/L	.	8b\L	.	.	.	4g\	-tus	4b\	-tus	.	.	.	.	.	4gg\	4bb\	.
.	.	.	8g/	.	8gg\	.	.	.	.	.	.	.	.	.	.	.	.	.	.	.
4BB/	6	.	8g/	.	8dd\	.	.	.	4b\	qui	4dd\	qui	.	.	.	.	.	4bb\	4ddd\	.
.	.	.	8g/J	.	8dd\J	.	.	.	.	.	.	.	.	.	.	.	.	.	.	.
!	!	!	!	!	!	!	!	!	!	!	!	!	!	!	!	!	!	!LO:LB:g=original	!	!
=42	=42	=42	=42	=42	=42	=42	=42	=42	=42	=42	=42	=42	=42	=42	=42	=42	=42	=42	=42	=42
.	.	.	.	.	8qdd#X/	.	.	.	.	.	.	.	.	.	.	.	.	.	.	.
4C/	.	.	4g/	.	4ee\	.	2.ryy	2.ryy	4cc\	ve-	4ee\	ve-	2.ryy	2.ryy	2.ryy	2.ryy	2.ryy	4ccc\	4eee\	.
4D\	.	.	8g/L	.	8ddn\L	.	.	.	8b\L	-nit	8dd\L	-nit	.	.	.	.	.	8bb\L	8ddd\L	.
.	.	.	8e/	.	8cc\	.	.	.	8a\J	.	8cc\J	.	.	.	.	.	.	8aa\	8ccc\	.
4D\	6	.	8d/	.	8b\	.	.	.	8g\L	in	8b\L	in	.	.	.	.	.	8gg\	8bb\	.
.	5	.	8c/J	.	8a\J	.	.	.	8f#\J	.	8a\J	.	.	.	.	.	.	8ff#\J	8aa\J	.
!	!	!	!	!	!	!	!	!	!	!	!LO:LB:g=original	!	!	!	!	!	!	!	!	!
=43	=43	=43	=43	=43	=43	=43	=43	=43	=43	=43	=43	=43	=43	=43	=43	=43	=43	=43	=43	=43
4E\	3	.	4B/	.	16g/LL	.	2.ryy	2.ryy	8g\	no-	8g\	no-	2.ryy	2.ryy	2.ryy	2.ryy	2.ryy	8gg\L	16gg\LL	.
.	.	.	.	.	16a/	.	.	.	.	.	.	.	.	.	.	.	.	.	16aa\	.
.	.	.	.	.	16b/	.	.	.	8g\	-mi-	8g\	-mi-	.	.	.	.	.	8gg\J	16bb\	.
.	.	.	.	.	16a/JJ	.	.	.	.	.	.	.	.	.	.	.	.	.	16aa\JJ	.
!	!	!	!	!	!LO:TX:t=P:problem=mixed beam	!	!	!	!	!	!	!	!	!	!	!	!	!	!	!
4BB/	6	.	4d/	.	8g/L	.	.	.	4g\	-ne	4g\	-ne	.	.	.	.	.	4gg\	4gg\	.
.	.	.	.	.	8gg\J	.	.	.	.	.	.	.	.	.	.	.	.	.	.	.
4r	.	.	4r	.	16bb\LL	.	.	.	4r	.	4r	.	.	.	.	.	.	4r	4r	.
.	.	.	.	.	16gg\	.	.	.	.	.	.	.	.	.	.	.	.	.	.	.
.	.	.	.	.	16ff#\	.	.	.	.	.	.	.	.	.	.	.	.	.	.	.
.	.	.	.	.	16gg\JJ	.	.	.	.	.	.	.	.	.	.	.	.	.	.	.
=44	=44	=44	=44	=44	=44	=44	=44	=44	=44	=44	=44	=44	=44	=44	=44	=44	=44	=44	=44	=44
4C\	.	.	8g/L	.	8ee\L	.	2.ryy	2.ryy	8g\L	Do-	8ee\L	Do-	2.ryy	2.ryy	2.ryy	2.ryy	2.ryy	8gg\L	8eee\L	.
.	.	.	8e/	.	8cc\	.	.	.	8e\J	.	8cc\J	.	.	.	.	.	.	8ee\	8ccc\	.
4D\	4	.	8d/	.	8b\	.	.	.	8d\L	.	8b\L	.	.	.	.	.	.	8dd\	8bb\	.
.	.	.	8c/	.	8a\	.	.	.	8c\J	.	8a\J	.	.	.	.	.	.	8cc\	8aa\	.
!	!	!	!	!	!	!	!	!	!LO:LB:g=original	!	!	!	!	!	!	!	!	!	!	!
4DD/	#	.	8B/	.	8g\	.	.	.	8B/L	-mi-	8g/L	-mi-	.	.	.	.	.	8b\	8gg\	.
.	.	.	8A/J	.	8f#\J	.	.	.	8A/J	.	8f#/J	.	.	.	.	.	.	8a\J	8ff#\J	.
!	!	!	!	!	!LO:LB:g=original	!	!	!	!	!	!	!	!	!	!	!	!	!	!	!
=45	=45	=45	=45	=45	=45	=45	=45	=45	=45	=45	=45	=45	=45	=45	=45	=45	=45	=45	=45	=45
.	.	.	.	.	8qf#/	.	.	.	.	.	.	.	.	.	.	.	.	8qa/	8qff#/	.
8GG/L	.	.	2B/	.	2g/	.	2.ryy	2.ryy	2B/	-ni	2g\	-ni	2.ryy	2.ryy	2.ryy	2.ryy	2.ryy	2b\	2gg\	.
8D'>/	.	.	.	.	.	.	.	.	.	.	.	.	.	.	.	.	.	.	.	.
8C'>/	.	.	.	.	.	.	.	.	.	.	.	.	.	.	.	.	.	.	.	.
8BB'>/	.	.	.	.	.	.	.	.	.	.	.	.	.	.	.	.	.	.	.	.
8AA'>/	.	.	4r	.	4r	.	.	.	4r	.	4r	.	.	.	.	.	.	4r	4r	.
8GG'>/J	.	.	.	.	.	.	.	.	.	.	.	.	.	.	.	.	.	.	.	.
=46	=46	=46	=46	=46	=46	=46	=46	=46	=46	=46	=46	=46	=46	=46	=46	=46	=46	=46	=46	=46
4DD/	5	.	16A/LL	.	8ff#\L	.	2.ryy	2.ryy	2a\	Be-	2ff#\	Be-	2.ryy	2.ryy	2.ryy	2.ryy	2.ryy	0.r	0.r	.
.	.	.	16d/	.	.	.	.	.	.	.	.	.	.	.	.	.	.	.	.	.
.	.	.	16c/	.	8aa\J	.	.	.	.	.	.	.	.	.	.	.	.	.	.	.
.	.	.	16d/JJ	.	.	.	.	.	.	.	.	.	.	.	.	.	.	.	.	.
*	*	*	*rep	*	*	*	*	*	*	*	*	*	*	*	*	*	*	*	*	*
4D\	3	.	16A/LL	.	8r	.	.	.	.	.	.	.	.	.	.	.	.	.	.	.
.	.	.	16d/	.	.	.	.	.	.	.	.	.	.	.	.	.	.	.	.	.
.	.	.	16c/	.	8ccc\L	.	.	.	.	.	.	.	.	.	.	.	.	.	.	.
.	.	.	16d/JJ	.	.	.	.	.	.	.	.	.	.	.	.	.	.	.	.	.
*	*	*	*Xrep	*	*	*	*	*	*	*	*	*	*	*	*	*	*	*	*	*
*	*	*	*rep	*	*	*	*	*	*	*	*	*	*	*	*	*	*	*	*	*
4D\	.	.	16A/LL	.	8aa\	.	.	.	4a\	-ne-	4ff#\	-ne-	.	.	.	.	.	.	.	.
.	.	.	16d/	.	.	.	.	.	.	.	.	.	.	.	.	.	.	.	.	.
.	.	.	16c/	.	8ff#\J	.	.	.	.	.	.	.	.	.	.	.	.	.	.	.
.	.	.	16d/JJ	.	.	.	.	.	.	.	.	.	.	.	.	.	.	.	.	.
*	*	*	*Xrep	*	*	*	*	*	*	*	*	*	*	*	*	*	*	*	*	*
=47	=47	=47	=47	=47	=47	=47	=47	=47	=47	=47	=47	=47	=47	=47	=47	=47	=47	=47	=47	=47
4GG/	.	.	16B/LL	.	16gg\LL	.	2.ryy	2.ryy	4b\	-dic-	4gg\	-dic-	2.ryy	2.ryy	2.ryy	2.ryy	2.ryy	.	.	.
.	.	.	16d/	.	16aa\	.	.	.	.	.	.	.	.	.	.	.	.	.	.	.
.	.	.	16B/	.	16bb\	.	.	.	.	.	.	.	.	.	.	.	.	.	.	.
.	.	.	16d/JJ	.	16aa\JJ	.	.	.	.	.	.	.	.	.	.	.	.	.	.	.
*	*	*	*rep	*	*	*	*	*	*	*	*	*	*	*	*	*	*	*	*	*
4G\	.	.	16B/LL	.	8gg\L	.	.	.	4b\	-tus	4dd\	-tuſ	.	.	.	.	.	.	.	.
.	.	.	16d/	.	.	.	.	.	.	.	.	.	.	.	.	.	.	.	.	.
.	.	.	16B/	.	16ddd\L	.	.	.	.	.	.	.	.	.	.	.	.	.	.	.
.	.	.	16d/JJ	.	16bb\JJ	.	.	.	.	.	.	.	.	.	.	.	.	.	.	.
*	*	*	*Xrep	*	*	*	*	*	*	*	*	*	*	*	*	*	*	*	*	*
*	*	*	*rep	*	*	*	*	*	*	*	*	*	*	*	*	*	*	*	*	*
4r	.	.	16B/LL	.	8gg\L	.	.	.	4r	.	4r	.	.	.	.	.	.	.	.	.
.	.	.	16d/	.	.	.	.	.	.	.	.	.	.	.	.	.	.	.	.	.
.	.	.	16B/	.	8dd\J	.	.	.	.	.	.	.	.	.	.	.	.	.	.	.
.	.	.	16d/JJ	.	.	.	.	.	.	.	.	.	.	.	.	.	.	.	.	.
*	*	*	*Xrep	*	*	*	*	*	*	*	*	*	*	*	*	*	*	*	*	*
!	!	!	!LO:LB:g=original	!	!	!	!	!	!	!	!	!	!	!	!	!	!	!	!	!
=48	=48	=48	=48	=48	=48	=48	=48	=48	=48	=48	=48	=48	=48	=48	=48	=48	=48	=48	=48	=48
4DD/	3	.	16A/LL	.	8ff#\L	.	2.ryy	2.ryy	2.a\	qui	2.ff#\	qui	2.ryy	2.ryy	2.ryy	2.ryy	2.ryy	.	.	.
.	.	.	16d/	.	.	.	.	.	.	.	.	.	.	.	.	.	.	.	.	.
.	.	.	16c/	.	8aa\J	.	.	.	.	.	.	.	.	.	.	.	.	.	.	.
.	.	.	16d/JJ	.	.	.	.	.	.	.	.	.	.	.	.	.	.	.	.	.
*	*	*	*rep	*	*	*	*	*	*	*	*	*	*	*	*	*	*	*	*	*
4D\	.	.	16A/LL	.	8r	.	.	.	.	.	.	.	.	.	.	.	.	.	.	.
.	.	.	16d/	.	.	.	.	.	.	.	.	.	.	.	.	.	.	.	.	.
.	.	.	16c/	.	8ccc\L	.	.	.	.	.	.	.	.	.	.	.	.	.	.	.
.	.	.	16d/JJ	.	.	.	.	.	.	.	.	.	.	.	.	.	.	.	.	.
*	*	*	*Xrep	*	*	*	*	*	*	*	*	*	*	*	*	*	*	*	*	*
*	*	*	*rep	*	*	*	*	*	*	*	*	*	*	*	*	*	*	*	*	*
4D\	.	.	16A/LL	.	8aa\	.	.	.	.	.	.	.	.	.	.	.	.	.	.	.
.	.	.	16d/	.	.	.	.	.	.	.	.	.	.	.	.	.	.	.	.	.
.	.	.	16c/	.	8ff#\J	.	.	.	.	.	.	.	.	.	.	.	.	.	.	.
.	.	.	16d/JJ	.	.	.	.	.	.	.	.	.	.	.	.	.	.	.	.	.
*	*	*	*Xrep	*	*	*	*	*	*	*	*	*	*	*	*	*	*	*	*	*
=49	=49	=49	=49	=49	=49	=49	=49	=49	=49	=49	=49	=49	=49	=49	=49	=49	=49	=49	=49	=49
4GG/	.	.	16B/LL	.	16gg\LL	.	2.ryy	2.ryy	4b\	ve-	4gg\	ve-	2.ryy	2.ryy	2.ryy	2.ryy	2.ryy	.	.	.
.	.	.	16d/	.	16aa\	.	.	.	.	.	.	.	.	.	.	.	.	.	.	.
.	.	.	16B/	.	16bb\	.	.	.	.	.	.	.	.	.	.	.	.	.	.	.
.	.	.	16d/JJ	.	16aa\JJ	.	.	.	.	.	.	.	.	.	.	.	.	.	.	.
*	*	*	*rep	*	*	*	*	*	*	*	*	*	*	*	*	*	*	*	*	*
4G\	.	.	16B/LL	.	8gg\L	.	.	.	4b\	-nit	4dd\	-nit	.	.	.	.	.	.	.	.
.	.	.	16d/	.	.	.	.	.	.	.	.	.	.	.	.	.	.	.	.	.
.	.	.	16B/	.	16ddd\L	.	.	.	.	.	.	.	.	.	.	.	.	.	.	.
.	.	.	16d/JJ	.	16bb\JJ	.	.	.	.	.	.	.	.	.	.	.	.	.	.	.
*	*	*	*Xrep	*	*	*	*	*	*	*	*	*	*	*	*	*	*	*	*	*
*	*	*	*rep	*	*	*	*	*	*	*	*	*	*	*	*	*	*	*	*	*
4r	.	.	16B/LL	.	8gg\L	.	.	.	4b\	in	4dd\	in	.	.	.	.	.	.	.	.
.	.	.	16d/	.	.	.	.	.	.	.	.	.	.	.	.	.	.	.	.	.
.	.	.	16B/	.	8dd\J	.	.	.	.	.	.	.	.	.	.	.	.	.	.	.
.	.	.	16d/JJ	.	.	.	.	.	.	.	.	.	.	.	.	.	.	.	.	.
*	*	*	*Xrep	*	*	*	*	*	*	*	*	*	*	*	*	*	*	*	*	*
!LO:LB:g=original	!	!	!	!	!	!	!	!	!	!	!	!	!	!	!	!	!	!	!	!
=50	=50	=50	=50	=50	=50	=50	=50	=50	=50	=50	=50	=50	=50	=50	=50	=50	=50	=50	=50	=50
!	!	!	!LO:TX:t=P:problem=mixed beam	!	!	!	!	!	!	!	!	!	!	!	!	!	!	!	!	!
4C/	.	.	8e/L	.	8ee\L	.	2.ryy	2.ryy	4cc\	no-	4ee\	no-	2.ryy	2.ryy	2.ryy	2.ryy	2.ryy	0.r	0.r	.
.	.	.	(8ee\	.	8ccc\	.	.	.	.	.	.	.	.	.	.	.	.	.	.	.
4D/	6 4	.	8dd\	.	8bb\	.	.	.	8b\L	.	8dd\L	-mi-	.	.	.	.	.	.	.	.
.	.	.	8cc\	.	8aa\	.	.	.	8a\J	.	8cc\J	.	.	.	.	.	.	.	.	.
4D/	5 3	.	8b\	.	8gg\	.	.	.	8g\L	-mi-	8b\L	-ne	.	.	.	.	.	.	.	.
.	.	.	8a\J)	.	8ff#\J	.	.	.	8f#\J	.	8a\J	.	.	.	.	.	.	.	.	.
!	!	!	!	!	!	!	!	!	!	!	!LO:PB:g=original	!	!	!	!	!	!	!	!	!
=51	=51	=51	=51	=51	=51	=51	=51	=51	=51	=51	=51	=51	=51	=51	=51	=51	=51	=51	=51	=51
8G\L	.	.	(8g\L	.	8gg\L	.	2.ryy	2.ryy	8g\	-ne	8b\	Do-	2.ryy	2.ryy	2.ryy	2.ryy	2.ryy	.	.	.
8C\J	.	.	8cc\J)	.	8ee\	.	.	.	8cc\	Do-	8ee\	.	.	.	.	.	.	.	.	.
4D/	4	.	(8b/L	.	8dd\	.	.	.	8b\L	.	8dd\L	.	.	.	.	.	.	.	.	.
.	.	.	8a/)	.	8cc\	.	.	.	8a\	.	8cc\J	.	.	.	.	.	.	.	.	.
4DD/	3	.	(8g/	.	8b\	.	.	.	8g\	-mi-	8b\L	-mi-	.	.	.	.	.	.	.	.
.	.	.	8f#/J)	.	8a\J	.	.	.	8f#\J	.	8a\J	.	.	.	.	.	.	.	.	.
!	!	!	!	!	!	!	!	!	!LO:LB:g=original	!	!	!	!	!	!	!	!	!	!	!
=52	=52	=52	=52	=52	=52	=52	=52	=52	=52	=52	=52	=52	=52	=52	=52	=52	=52	=52	=52	=52
8GG/L	.	.	2g/	.	2g/	.	2.ryy	2.ryy	2g\	-ni	2g\	-ni	2.ryy	2.ryy	2.ryy	2.ryy	2.ryy	.	.	.
8D'>/	.	.	.	.	.	.	.	.	.	.	.	.	.	.	.	.	.	.	.	.
8C'>/	.	.	.	.	.	.	.	.	.	.	.	.	.	.	.	.	.	.	.	.
8BB'>/	.	.	.	.	.	.	.	.	.	.	.	.	.	.	.	.	.	.	.	.
8AA'>/	.	.	4r	.	4r	.	.	.	4r	.	4r	.	.	.	.	.	.	.	.	.
8GG'>/J	.	.	.	.	.	.	.	.	.	.	.	.	.	.	.	.	.	.	.	.
=53	=53	=53	=53	=53	=53	=53	=53	=53	=53	=53	=53	=53	=53	=53	=53	=53	=53	=53	=53	=53
4DD/	.	.	16A/LL	.	8ff#\L	.	2.ryy	2.ryy	2a\	Be-	2ff#\	Be-	2.ryy	2.ryy	2.ryy	2.ryy	2.ryy	.	.	.
.	.	.	16d/	.	.	.	.	.	.	.	.	.	.	.	.	.	.	.	.	.
.	.	.	16c/	.	8aa\J	.	.	.	.	.	.	.	.	.	.	.	.	.	.	.
.	.	.	16d/JJ	.	.	.	.	.	.	.	.	.	.	.	.	.	.	.	.	.
*	*	*	*rep	*	*	*	*	*	*	*	*	*	*	*	*	*	*	*	*	*
4D\	7	.	16A/LL	.	8r	.	.	.	.	.	.	.	.	.	.	.	.	.	.	.
.	.	.	16d/	.	.	.	.	.	.	.	.	.	.	.	.	.	.	.	.	.
.	.	.	16c/	.	8ccc\L	.	.	.	.	.	.	.	.	.	.	.	.	.	.	.
.	.	.	16d/JJ	.	.	.	.	.	.	.	.	.	.	.	.	.	.	.	.	.
*	*	*	*Xrep	*	*	*	*	*	*	*	*	*	*	*	*	*	*	*	*	*
*	*	*	*rep	*	*	*	*	*	*	*	*	*	*	*	*	*	*	*	*	*
4D\	.	.	16A/LL	.	8aa\	.	.	.	4a\	-ne-	4ff#\	-ne-	.	.	.	.	.	.	.	.
.	.	.	16d/	.	.	.	.	.	.	.	.	.	.	.	.	.	.	.	.	.
.	.	.	16c/	.	8ff#\J	.	.	.	.	.	.	.	.	.	.	.	.	.	.	.
.	.	.	16d/JJ	.	.	.	.	.	.	.	.	.	.	.	.	.	.	.	.	.
*	*	*	*Xrep	*	*custos:gg	*	*	*	*	*	*	*	*	*	*	*	*	*	*	*
!	!	!	!	!	!LO:PB:g=original	!	!	!	!	!	!	!	!	!	!	!	!	!	!	!
=54	=54	=54	=54	=54	=54	=54	=54	=54	=54	=54	=54	=54	=54	=54	=54	=54	=54	=54	=54	=54
4GG/	.	.	16B/LL	.	16gg\LL	.	2.ryy	2.ryy	4b\	-dic-	4gg\	-dic-	2.ryy	2.ryy	2.ryy	2.ryy	2.ryy	0.r	0.r	.
.	.	.	16d/	.	16aa\	.	.	.	.	.	.	.	.	.	.	.	.	.	.	.
.	.	.	16B/	.	16bb\	.	.	.	.	.	.	.	.	.	.	.	.	.	.	.
.	.	.	16d/JJ	.	16aa\JJ	.	.	.	.	.	.	.	.	.	.	.	.	.	.	.
*	*	*	*rep	*	*	*	*	*	*	*	*	*	*	*	*	*	*	*	*	*
4G\	.	.	16B/LL	.	8gg\L	.	.	.	4b\	-tus	4dd\	-tuſ	.	.	.	.	.	.	.	.
.	.	.	16d/	.	.	.	.	.	.	.	.	.	.	.	.	.	.	.	.	.
.	.	.	16B/	.	16ddd\L	.	.	.	.	.	.	.	.	.	.	.	.	.	.	.
.	.	.	16d/JJ	.	16bb\JJ	.	.	.	.	.	.	.	.	.	.	.	.	.	.	.
*	*	*	*Xrep	*	*	*	*	*	*	*	*	*	*	*	*	*	*	*	*	*
*	*	*	*rep	*	*	*	*	*	*	*	*	*	*	*	*	*	*	*	*	*
4r	.	.	16B/LL	.	8gg|<\L	.	.	.	4r	.	4r	.	.	.	.	.	.	.	.	.
.	.	.	16d/	.	.	.	.	.	.	.	.	.	.	.	.	.	.	.	.	.
.	.	.	16B/	.	8dd|<\J	.	.	.	.	.	.	.	.	.	.	.	.	.	.	.
.	.	.	16d/JJ	.	.	.	.	.	.	.	.	.	.	.	.	.	.	.	.	.
*	*	*	*Xrep	*	*	*	*	*	*	*	*	*	*	*	*	*	*	*	*	*
=55	=55	=55	=55	=55	=55	=55	=55	=55	=55	=55	=55	=55	=55	=55	=55	=55	=55	=55	=55	=55
4DD/	.	.	16A/LL	.	8ff#\L	.	2.ryy	2.ryy	2.a\	qui	2.ff#\	qui	2.ryy	2.ryy	2.ryy	2.ryy	2.ryy	.	.	.
.	.	.	16d/	.	.	.	.	.	.	.	.	.	.	.	.	.	.	.	.	.
.	.	.	16c/	.	8aa\J	.	.	.	.	.	.	.	.	.	.	.	.	.	.	.
.	.	.	16d/JJ	.	.	.	.	.	.	.	.	.	.	.	.	.	.	.	.	.
*	*	*	*rep	*	*	*	*	*	*	*	*	*	*	*	*	*	*	*	*	*
4D\	.	.	16A/LL	.	8r	.	.	.	.	.	.	.	.	.	.	.	.	.	.	.
.	.	.	16d/	.	.	.	.	.	.	.	.	.	.	.	.	.	.	.	.	.
.	.	.	16c/	.	8ccc|<\L	.	.	.	.	.	.	.	.	.	.	.	.	.	.	.
.	.	.	16d/JJ	.	.	.	.	.	.	.	.	.	.	.	.	.	.	.	.	.
*	*	*	*Xrep	*	*	*	*	*	*	*	*	*	*	*	*	*	*	*	*	*
*	*	*	*rep	*	*	*	*	*	*	*	*	*	*	*	*	*	*	*	*	*
4D\	.	.	16A/LL	.	8aa|<\	.	.	.	.	.	.	.	.	.	.	.	.	.	.	.
.	.	.	16d/	.	.	.	.	.	.	.	.	.	.	.	.	.	.	.	.	.
.	.	.	16c/	.	8ff#|<\J	.	.	.	.	.	.	.	.	.	.	.	.	.	.	.
.	.	.	16d/JJ	.	.	.	.	.	.	.	.	.	.	.	.	.	.	.	.	.
*	*	*	*Xrep	*	*	*	*	*	*	*	*	*	*	*	*	*	*	*	*	*
!	!	!	!LO:PB:g=original	!	!	!	!	!	!	!	!	!	!	!	!	!	!	!	!	!
=56	=56	=56	=56	=56	=56	=56	=56	=56	=56	=56	=56	=56	=56	=56	=56	=56	=56	=56	=56	=56
4GG/	.	.	16B/LL	.	16gg\LL	.	2.ryy	2.ryy	4b\	ve-	4gg\	ve-	2.ryy	2.ryy	2.ryy	2.ryy	2.ryy	.	.	.
.	.	.	16d/	.	16aa\	.	.	.	.	.	.	.	.	.	.	.	.	.	.	.
.	.	.	16B/	.	16bb\	.	.	.	.	.	.	.	.	.	.	.	.	.	.	.
.	.	.	16d/JJ	.	16aa\JJ	.	.	.	.	.	.	.	.	.	.	.	.	.	.	.
*	*	*	*rep	*	*	*	*	*	*	*	*	*	*	*	*	*	*	*	*	*
4G\	.	.	16B/LL	.	8gg\L	.	.	.	4b\	.	4dd\	-nit	.	.	.	.	.	.	.	.
.	.	.	16d/	.	.	.	.	.	.	.	.	.	.	.	.	.	.	.	.	.
.	.	.	16B/	.	16ddd\L	.	.	.	.	.	.	.	.	.	.	.	.	.	.	.
.	.	.	16d/JJ	.	16bb\JJ	.	.	.	.	.	.	.	.	.	.	.	.	.	.	.
*	*	*	*Xrep	*	*	*	*	*	*	*	*	*	*	*	*	*	*	*	*	*
*	*	*	*rep	*	*	*	*	*	*	*	*	*	*	*	*	*	*	*	*	*
4ryy	.	.	16B/LL	.	8gg\L	.	.	.	4b\	-nit	4dd\	in	.	.	.	.	.	.	.	.
.	.	.	16d/	.	.	.	.	.	.	.	.	.	.	.	.	.	.	.	.	.
.	.	.	16B/	.	8dd\J	.	.	.	.	.	.	.	.	.	.	.	.	.	.	.
.	.	.	16d/JJ	.	.	.	.	.	.	.	.	.	.	.	.	.	.	.	.	.
*	*	*	*Xrep	*	*	*	*	*	*	*	*	*	*	*	*	*	*	*	*	*
=57	=57	=57	=57	=57	=57	=57	=57	=57	=57	=57	=57	=57	=57	=57	=57	=57	=57	=57	=57	=57
4C/	.	.	8g'\L	.	8ee\L	.	2.ryy	2.ryy	4cc\	in	4ee\	no-	2.ryy	2.ryy	2.ryy	2.ryy	2.ryy	.	.	.
.	.	.	(8ee\	.	8ccc\	.	.	.	.	.	.	.	.	.	.	.	.	.	.	.
4D\	.	.	8dd\	.	8bb\	.	.	.	8b\L	no-	8dd\L	.	.	.	.	.	.	.	.	.
.	.	.	8cc\	.	8aa\	.	.	.	8a\J	.	8cc\J	.	.	.	.	.	.	.	.	.
4D\	.	.	8b\	.	8gg\	.	.	.	8g\L	-mi-	8b\L	-mi-	.	.	.	.	.	.	.	.
.	.	.	8a\J)	.	8ff#\J	.	.	.	8f#\J	.	8a\J	.	.	.	.	.	.	.	.	.
=58	=58	=58	=58	=58	=58	=58	=58	=58	=58	=58	=58	=58	=58	=58	=58	=58	=58	=58	=58	=58
8G\L	.	.	4b/	.	4gg\	.	2.ryy	2.ryy	8g\	-ne	8b\	-ne	2.ryy	2.ryy	2.ryy	2.ryy	2.ryy	2.r	2.r	.
8C\J	.	.	.	.	.	.	.	.	8cc\	Do-	8ee\	Do-	.	.	.	.	.	.	.	.
4D\	4	.	4r	.	4r	.	.	.	8b\L	.	8dd\L	.	.	.	.	.	.	.	.	.
.	.	.	.	.	.	.	.	.	8a\J	.	8cc\J	.	.	.	.	.	.	.	.	.
4DD/	#	.	4r	.	4r	.	.	.	8g\L	-mi-	8b\L	-mi-	.	.	.	.	.	.	.	.
.	.	.	.	.	.	.	.	.	8f#\J	.	8a\J	.	.	.	.	.	.	.	.	.
!	!	!	!	!	!	!	!	!	!	!	!LO:LB:g=original	!	!	!	!	!	!	!	!	!
=59	=59	=59	=59	=59	=59	=59	=59	=59	=59	=59	=59	=59	=59	=59	=59	=59	=59	=59	=59	=59
*	*	*	*tremolo	*	*	*	*	*	*	*	*	*	*	*	*	*	*	*	*	*
!LO:TX:t=P:problem=mixed beam	!	!	!	!	!	!	!	!	!	!	!	!	!	!	!	!	!	!	!	!
8GG/L	.	.	8d 8B/L	.	2g/	.	2.ryy	2.ryy	2g\	-ni	2g\	-ni	2.ryy	2.ryy	2.ryy	2.ryy	2.ryy	2b\	2gg\	.
8G\J	.	.	8d 8B/	.	.	.	.	.	.	.	.	.	.	.	.	.	.	.	.	.
*tremolo	*	*	*	*	*	*	*	*	*	*	*	*	*	*	*	*	*	*	*	*
8G\L	.	.	8d 8B/	.	.	.	.	.	.	.	.	.	.	.	.	.	.	.	.	.
8G\	.	.	8d 8B/J	.	.	.	.	.	.	.	.	.	.	.	.	.	.	.	.	.
*	*	*	*Xtremolo	*	*	*	*	*	*	*	*	*	*	*	*	*	*	*	*	*
8G\	.	.	8dL 8B/	.	16b/LL	.	.	.	4r	.	4r	.	.	.	.	.	.	8gg\L	16bb\LL	.
.	.	.	.	.	16g/	.	.	.	.	.	.	.	.	.	.	.	.	.	16gg\	.
8G\J	.	.	8dJ 8A/	.	16cc/	.	.	.	.	.	.	.	.	.	.	.	.	8aa\J	16ccc\	.
.	.	.	.	.	16a/JJ	.	.	.	.	.	.	.	.	.	.	.	.	.	16aa\JJ	.
=60	=60	=60	=60	=60	=60	=60	=60	=60	=60	=60	=60	=60	=60	=60	=60	=60	=60	=60	=60	=60
*	*	*	*tremolo	*	*	*	*	*	*	*	*	*	*	*	*	*	*	*	*	*
8G\L	.	.	8d 8B/L	.	2dd\	.	2.ryy	2.ryy	0.r	.	0.r	.	2.ryy	2.ryy	2.ryy	2.ryy	2.ryy	2bb\	2ddd\	.
8G\	.	.	8d 8B/	.	.	.	.	.	.	.	.	.	.	.	.	.	.	.	.	.
8G\	.	.	8d 8B/	.	.	.	.	.	.	.	.	.	.	.	.	.	.	.	.	.
8G\J	.	.	8d 8B/J	.	.	.	.	.	.	.	.	.	.	.	.	.	.	.	.	.
*Xtremolo	*	*	*Xtremolo	*	*	*	*	*	*	*	*	*	*	*	*	*	*	*	*	*
8D\L	6 4	.	8dL 8B/	.	16b/LL	.	.	.	.	.	.	.	.	.	.	.	.	8gg\L	16bb\LL	.
.	.	.	.	.	16g/	.	.	.	.	.	.	.	.	.	.	.	.	.	16gg\	.
8D\J	5 3	.	8dJ 8A/	.	16a/	.	.	.	.	.	.	.	.	.	.	.	.	8dd\J	16aa\	.
.	.	.	.	.	16f#/JJ	.	.	.	.	.	.	.	.	.	.	.	.	.	16ff#\JJ	.
!	!	!	!	!	!	!	!	!	!	!	!	!	!	!	!	!	!	!	!LO:LB:g=original	!
=61	=61	=61	=61	=61	=61	=61	=61	=61	=61	=61	=61	=61	=61	=61	=61	=61	=61	=61	=61	=61
*tremolo	*	*	*tremolo	*	*	*	*	*	*	*	*	*	*	*	*	*	*	*	*	*
8G\L	.	.	8d 8B/L	.	2g/	.	2.ryy	2.ryy	.	.	.	.	2.ryy	2.ryy	2.ryy	2.ryy	2.ryy	2b\	2gg\	.
8G\	.	.	8d 8B/	.	.	.	.	.	.	.	.	.	.	.	.	.	.	.	.	.
8G\	.	.	8d 8B/	.	.	.	.	.	.	.	.	.	.	.	.	.	.	.	.	.
8G\	.	.	8d 8B/J	.	.	.	.	.	.	.	.	.	.	.	.	.	.	.	.	.
*	*	*	*Xtremolo	*	*	*	*	*	*	*	*	*	*	*	*	*	*	*	*	*
8G\	.	.	8dL 8B/	.	16b/LL	.	.	.	.	.	.	.	.	.	.	.	.	8gg\L	16bb\LL	.
.	.	.	.	.	16g/	.	.	.	.	.	.	.	.	.	.	.	.	.	16gg\	.
8G\J	.	.	8dJ 8A/	.	16cc/	.	.	.	.	.	.	.	.	.	.	.	.	8aa\J	16ccc\	.
.	.	.	.	.	16a/JJ	.	.	.	.	.	.	.	.	.	.	.	.	.	16aa\JJ	.
*	*	*	*	*	*custos:dd	*	*	*	*	*	*	*	*	*	*	*	*	*	*	*
!	!	!	!	!	!LO:LB:g=original	!	!	!	!	!	!	!	!	!	!	!	!	!	!	!
=62	=62	=62	=62	=62	=62	=62	=62	=62	=62	=62	=62	=62	=62	=62	=62	=62	=62	=62	=62	=62
*	*	*	*tremolo	*	*	*	*	*	*	*	*	*	*	*	*	*	*	*	*	*
8G\L	.	.	8d 8B/L	.	2dd\	.	2.ryy	2.ryy	.	.	.	.	2.ryy	2.ryy	2.ryy	2.ryy	2.ryy	2bb\	2ddd\	.
8G\	.	.	8d 8B/	.	.	.	.	.	.	.	.	.	.	.	.	.	.	.	.	.
8G\	.	.	8d 8B/	.	.	.	.	.	.	.	.	.	.	.	.	.	.	.	.	.
8G\J	.	.	8d 8B/J	.	.	.	.	.	.	.	.	.	.	.	.	.	.	.	.	.
*Xtremolo	*	*	*Xtremolo	*	*	*	*	*	*	*	*	*	*	*	*	*	*	*	*	*
8D\L	6 4	.	8dL 8B/	.	16b/LL	.	.	.	.	.	.	.	.	.	.	.	.	8gg\L	16bb\LL	.
.	.	.	.	.	16g/	.	.	.	.	.	.	.	.	.	.	.	.	.	16gg\	.
8D\J	5 3	.	8dJ 8A/	.	16a/	.	.	.	.	.	.	.	.	.	.	.	.	8dd\J	16aa\	.
.	.	.	.	.	16f#/JJ	.	.	.	.	.	.	.	.	.	.	.	.	.	16ff#\JJ	.
*	*	*	*	*	*	*	*	*	*	*	*	*	*	*	*	*	*	*custos:b	*	*
!LO:LB:g=original	!	!	!	!	!	!	!	!	!	!	!	!	!	!	!	!	!	!LO:LB:g=original	!	!
=63	=63	=63	=63	=63	=63	=63	=63	=63	=63	=63	=63	=63	=63	=63	=63	=63	=63	=63	=63	=63
4G\	.	.	8B/L	.	2g/	.	2.ryy	2.ryy	.	.	.	.	2.ryy	2.ryy	2.ryy	2.ryy	2.ryy	2b\	2gg\	.
.	.	.	8d/	.	.	.	.	.	.	.	.	.	.	.	.	.	.	.	.	.
4GG/	.	.	8B/	.	.	.	.	.	.	.	.	.	.	.	.	.	.	.	.	.
.	.	.	8d/	.	.	.	.	.	.	.	.	.	.	.	.	.	.	.	.	.
4D\	7	.	8c/	.	16a/LL	.	.	.	.	.	.	.	.	.	.	.	.	4dd\	16aa\LL	.
.	.	.	.	.	16b/	.	.	.	.	.	.	.	.	.	.	.	.	.	16bb\	.
.	.	.	8d/J	.	16f#/	.	.	.	.	.	.	.	.	.	.	.	.	.	16ff#\	.
.	.	.	.	.	16d/JJ	.	.	.	.	.	.	.	.	.	.	.	.	.	16dd\JJ	.
!	!	!	!LO:LB:g=original	!	!	!	!	!	!	!	!	!	!	!	!	!	!	!	!	!
=64	=64	=64	=64	=64	=64	=64	=64	=64	=64	=64	=64	=64	=64	=64	=64	=64	=64	=64	=64	=64
4G\	.	.	8B/L	.	2g/	.	2.ryy	2.ryy	1.r	.	1.r	.	2.ryy	2.ryy	2.ryy	2.ryy	2.ryy	2b\	2gg\	.
.	.	.	8d/	.	.	.	.	.	.	.	.	.	.	.	.	.	.	.	.	.
4GG/	.	.	8B/	.	.	.	.	.	.	.	.	.	.	.	.	.	.	.	.	.
.	.	.	8d/	.	.	.	.	.	.	.	.	.	.	.	.	.	.	.	.	.
4D\	7	.	8c/	.	16a/LL	.	.	.	.	.	.	.	.	.	.	.	.	4dd\	16aa\LL	.
.	.	.	.	.	16b/	.	.	.	.	.	.	.	.	.	.	.	.	.	16bb\	.
.	.	.	8d/J	.	16f#/	.	.	.	.	.	.	.	.	.	.	.	.	.	16ff#\	.
.	.	.	.	.	16d/JJ	.	.	.	.	.	.	.	.	.	.	.	.	.	16dd\JJ	.
=65	=65	=65	=65	=65	=65	=65	=65	=65	=65	=65	=65	=65	=65	=65	=65	=65	=65	=65	=65	=65
4GG/	.	.	4B/	.	4g/	.	2.ryy	2.ryy	.	.	.	.	2.ryy	2.ryy	2.ryy	2.ryy	2.ryy	4b\	4gg\	.
4G\	.	.	4b\	.	4gg\	.	.	.	.	.	.	.	.	.	.	.	.	4b\	4gg\	.
!	!	!	!	!	!	!	!	!	!	!	!	!	!	!	!	!	!	!LO:TX:b:i:t=Sequitur Agnuſ	!LO:TX:b:i:t=Seque Agnus	!
4r	.	.	4r	.	4r	.	.	.	.	.	.	.	.	.	.	.	.	4r	4r	.
==	==	==	==	==	==	==	==	==	==	==	==	==	==	==	==	==	==	==	==	==
*-	*-	*-	*-	*-	*-	*-	*-	*-	*-	*-	*-	*-	*-	*-	*-	*-	*-	*-	*-	*-
!!!system-decoration: [(g1)][(g2)][(g3)][(g4)]<s14>
!!!RDF**kern: > = above
!!!RDF**kern: < = below
!!!RDF**kern: | = vertical stroke
!!!RDF**dynam: ff = "ff."
!!!RDF**dynam: pp = "pp."
!!!RDF**dynam: p = "p."
!!!ENC: Mateusz Solarz
!!!END: 2020-09-29
!!!ENC: Andrzej Kubiczek
!!!END: 2022-02-02
!!!YEC: Copyright 2022 Narodowy Instytut Fryderyka Chopina (https://polishscores.org)
!!!YEM: License CC-BY-4.0 (https://creativecommons.org/licenses/by/4.0)
